assets/img/logo.svg

<svg width="130" height="24" viewBox="0 0 130 24" fill="none" xmlns="http://www.w3.org/2000/svg">
<path d="M22.438 0.389771H26.7982V23.5523H22.438V0.389771Z" fill="white"/>
<path d="M66.96 11.9539H62.3214C61.6999 10.8254 60.3575 10.2586 58.3042 10.2586C57.3596 10.2586 56.6188 10.4028 56.0868 10.6911C55.5548 10.9795 55.2913 11.3772 55.2913 11.8843C55.2913 12.7146 56.1663 13.2018 57.9214 13.336L60.8995 13.5796C64.847 13.9028 66.8208 15.5633 66.8208 18.5661C66.8208 20.1819 66.1347 21.4894 64.7625 22.4937C63.3903 23.4979 61.516 24.0001 59.1345 24.0001C56.7132 24.0001 54.7544 23.5128 53.2678 22.5483C51.7812 21.5789 50.8366 20.1819 50.4438 18.3573H55.0825C55.5896 19.7195 57.0563 20.4006 59.4775 20.4006C60.3526 20.4006 61.0685 20.2664 61.6253 20.0029C62.1772 19.7394 62.4556 19.3516 62.4556 18.8445C62.4556 17.9894 61.6005 17.4724 59.8952 17.2884L56.6386 16.9752C52.8303 16.5825 50.9261 14.9568 50.9261 12.0931C50.9261 10.4774 51.5973 9.16982 52.9347 8.16556C54.2721 7.1613 56.0967 6.65919 58.4036 6.65919C63.0721 6.65422 65.9209 8.41911 66.96 11.9539Z" fill="white"/>
<path d="M72.0164 3.40234H76.3766V7.10615H81.3633V10.9144H76.3766V17.7006C76.3766 19.0628 77.013 19.7439 78.2808 19.7439H81.3633V23.5521H78.246C76.2374 23.5521 74.6962 23.0848 73.6223 22.1502C72.5484 21.2155 72.0114 19.9627 72.0114 18.3916V10.9144H68.9985V7.10615H72.0114V3.40234H72.0164Z" fill="white"/>
<path d="M109.248 7.10645H113.608V23.5524H109.248V7.10645Z" fill="white"/>
<path d="M120.116 3.40234H124.476V7.10615H129.463V10.9144H124.476V17.7006C124.476 19.0628 125.113 19.7439 126.38 19.7439H129.463V23.5521H126.346C124.337 23.5521 122.796 23.0848 121.722 22.1502C120.648 21.2155 120.111 19.9627 120.111 18.3916V10.9144H117.098V7.10615H120.111V3.40234H120.116Z" fill="white"/>
<path d="M0 0.677734L11.2828 0.677734C15.5978 0.677734 18.6404 3.12861 18.6404 6.62649C18.6404 8.97875 17.3304 10.777 14.9781 11.7911C17.7248 12.5424 19.4574 14.4721 19.4574 17.2516C19.4574 21.0781 16.288 23.5619 11.7101 23.5619H0.00469274L0.00469274 0.677734H0ZM11.1185 9.83327C13.2126 9.83327 14.3207 8.88484 14.3207 7.21807C14.3207 5.68275 13.0436 4.7672 11.1185 4.7672L4.4136 4.7672L4.4136 9.83327H11.1185ZM11.7712 19.4771C13.7338 19.4771 15.0391 18.3643 15.0391 16.6976C15.0391 15.0308 13.762 13.8194 11.7712 13.8194H4.4136V19.4771H11.7712Z" fill="white"/>
<path d="M85.7085 0.677734L96.9913 0.677734C101.306 0.677734 104.349 3.12861 104.349 6.62649C104.349 8.97875 103.039 10.777 100.687 11.7911C103.433 12.5424 105.166 14.4721 105.166 17.2516C105.166 21.0781 101.997 23.5619 97.4186 23.5619H85.7132V0.677734H85.7085ZM96.827 9.83327C98.9211 9.83327 100.029 8.88484 100.029 7.21807C100.029 5.68275 98.7521 4.7672 96.827 4.7672L90.1221 4.7672V9.83327H96.827ZM97.4797 19.4771C99.4423 19.4771 100.748 18.3643 100.748 16.6976C100.748 15.0308 99.4705 13.8194 97.4797 13.8194H90.1221V19.4771H97.4797Z" fill="white"/>
<path fill-rule="evenodd" clip-rule="evenodd" d="M47.6054 1.27537L46.4863 2.60287L47.6619 3.64386L47.6631 3.64496C48.4025 4.29718 48.475 5.41563 47.8508 6.1603L47.8501 6.16116L47.8494 6.16202L46.6903 7.53831L48.1814 8.81101L46.1358 11.2065C46.7999 12.4326 47.177 13.8368 47.177 15.3288C47.177 15.4252 47.1754 15.5214 47.1723 15.6171H47.2119V23.6959H44.0797V21.9704C42.5724 23.2365 40.6282 23.9992 38.5062 23.9992C33.7184 23.9992 29.8355 20.1164 29.8355 15.3288C29.8355 10.5411 33.7184 6.65833 38.5062 6.65833C39.6816 6.65833 40.8025 6.89235 41.8248 7.31632L43.7664 5.04258L45.1854 6.25373L46.2274 5.0164L45.0517 3.97534L45.0504 3.97423C44.311 3.32195 44.2386 2.20351 44.8628 1.4589L44.8637 1.45785L44.8646 1.45679L46.0926 0.00012207L47.6054 1.27537ZM43.6967 15.3288C43.6967 12.4651 41.37 10.1384 38.5062 10.1384C35.6425 10.1384 33.3157 12.4651 33.3157 15.3288C33.3157 18.1924 35.6425 20.5191 38.5062 20.5191C41.37 20.5191 43.6967 18.1924 43.6967 15.3288Z" fill="#6667AB"/>
<path d="M109.248 0.563477H113.608V4.45955H109.248V0.563477Z" fill="#6667AB"/>
</svg>

<svg width="130" height="24" fill="none" xmlns="http://www.w3.org/2000/svg"><path d="M22.438.39h4.36v23.162h-4.36V.39zM66.96 11.954h-4.639c-.621-1.129-1.963-1.695-4.017-1.695-.944 0-1.685.144-2.217.432-.532.288-.796.686-.796 1.193 0 .83.875 1.318 2.63 1.452l2.979.244c3.947.323 5.92 1.983 5.92 4.986 0 1.616-.685 2.923-2.057 3.928C63.39 23.498 61.516 24 59.134 24c-2.42 0-4.38-.487-5.866-1.452-1.487-.97-2.431-2.366-2.824-4.19h4.639c.507 1.361 1.973 2.043 4.395 2.043.875 0 1.59-.135 2.147-.398.552-.264.83-.651.83-1.159 0-.855-.855-1.372-2.56-1.556l-3.256-.313c-3.809-.393-5.713-2.018-5.713-4.882 0-1.616.671-2.923 2.009-3.927 1.337-1.005 3.162-1.507 5.469-1.507 4.668-.005 7.517 1.76 8.556 5.295zm5.056-8.552h4.36v3.704h4.987v3.808h-4.986v6.787c0 1.362.636 2.043 1.904 2.043h3.082v3.808h-3.117c-2.009 0-3.55-.467-4.624-1.402-1.074-.934-1.61-2.187-1.61-3.758v-7.478h-3.013V7.106h3.012V3.402h.005zm37.232 3.704h4.36v16.446h-4.36V7.106zm10.868-3.704h4.36v3.704h4.987v3.808h-4.987v6.787c0 1.362.637 2.043 1.904 2.043h3.083v3.808h-3.117c-2.009 0-3.55-.467-4.624-1.402-1.074-.934-1.611-2.187-1.611-3.758v-7.478h-3.013V7.106h3.013V3.402h.005zM0 .678h11.283c4.315 0 7.357 2.45 7.357 5.948 0 2.353-1.31 4.151-3.662 5.165 2.747.751 4.48 2.681 4.48 5.46 0 3.827-3.17 6.31-7.748 6.31H.005V.679H0zm11.118 9.155c2.095 0 3.203-.948 3.203-2.615 0-1.535-1.277-2.45-3.203-2.45H4.414v5.065h6.704zm.653 9.644c1.963 0 3.268-1.113 3.268-2.78 0-1.666-1.277-2.878-3.268-2.878H4.414v5.658h7.357zM85.709.678H96.99c4.315 0 7.358 2.45 7.358 5.948 0 2.353-1.31 4.151-3.662 5.165 2.746.751 4.479 2.681 4.479 5.46 0 3.827-3.169 6.31-7.747 6.31H85.713V.679h-.004zm11.118 9.155c2.094 0 3.202-.948 3.202-2.615 0-1.535-1.277-2.45-3.202-2.45h-6.705v5.065h6.705zm.653 9.644c1.962 0 3.268-1.113 3.268-2.78 0-1.666-1.278-2.878-3.268-2.878h-7.358v5.658h7.358z" fill="#fff"/><path fill-rule="evenodd" clip-rule="evenodd" d="M47.605 1.275l-1.119 1.328 1.176 1.04.001.002c.74.652.812 1.77.188 2.515v.001l-.002.001-1.159 1.376 1.491 1.273-2.045 2.396a8.63 8.63 0 011.036 4.41h.04v8.079H44.08V21.97a8.672 8.672 0 01-14.244-6.642 8.672 8.672 0 0111.989-8.012l1.941-2.273 1.42 1.21 1.041-1.237-1.175-1.04-.002-.002a1.808 1.808 0 01-.187-2.515v-.001l.002-.001L46.093 0l1.512 1.275zM43.697 15.33a5.194 5.194 0 00-5.19-5.19 5.194 5.194 0 00-5.191 5.19 5.194 5.194 0 005.19 5.19 5.194 5.194 0 005.19-5.19z" fill="#6667AB"/><path d="M109.248.563h4.36V4.46h-4.36V.563z" fill="#6667AB"/></svg>
